Sources/FrostedUI/Resources/Icons.xcassets/pencil32.imageset/pencil-32.svg

<svg width="32" height="32" viewBox="0 0 32 32" fill="none" xmlns="http://www.w3.org/2000/svg" data-fui-icon="true">
  <path
    d="M23.5623 2C25.0815 2.00001 26.5386 2.60362 27.613 3.67773L28.322 4.38574C29.3965 5.46019 29.9998 6.91798 29.9998 8.4375C29.9997 9.95681 29.3962 11.4139 28.322 12.4883L12.28 28.5303C12.1647 28.6456 12.0148 28.7207 11.8533 28.7432L2.85327 29.9932C2.62057 30.0254 2.38561 29.9464 2.21948 29.7803C2.05339 29.6141 1.97428 29.3792 2.00659 29.1465L3.25659 20.1465C3.27908 19.9849 3.35418 19.8351 3.46948 19.7197L19.5105 3.67773C20.5849 2.60333 22.0428 2.00007 23.5623 2ZM4.70776 20.6016L3.62866 28.3701L11.3972 27.291L23.3142 15.375L16.6248 8.68555L4.70776 20.6016ZM23.5623 3.5C22.4409 3.50007 21.3651 3.94547 20.572 4.73828L17.6853 7.625L24.3748 14.3145L27.2615 11.4277C28.0544 10.6346 28.4997 9.55899 28.4998 8.4375C28.4998 7.31601 28.0544 6.24037 27.2615 5.44727L26.5525 4.73828C25.7594 3.94547 24.6837 3.50001 23.5623 3.5Z"
    fill="currentColor"
  />
</svg>

<svg xmlns="http://www.w3.org/2000/svg" width="32" height="32" fill="none" data-fui-icon="true" viewBox="0 0 32 32"><path fill="currentColor" d="M23.562 2a5.73 5.73 0 0 1 4.051 1.678l.709.708a5.73 5.73 0 0 1 0 8.102L12.28 28.53a.75.75 0 0 1-.427.213l-9 1.25a.752.752 0 0 1-.846-.846l1.25-9a.75.75 0 0 1 .212-.427L19.511 3.678A5.73 5.73 0 0 1 23.562 2M4.708 20.602l-1.08 7.768 7.77-1.079 11.916-11.916-6.69-6.69zM23.562 3.5a4.23 4.23 0 0 0-2.99 1.238l-2.887 2.887 6.69 6.69 2.887-2.887a4.23 4.23 0 0 0 0-5.98l-.71-.71a4.23 4.23 0 0 0-2.99-1.238"/></svg>
